libs/icons/src/svg/file-money.svg

<svg width="16" height="16" viewBox="0 0 16 16" fill="none" xmlns="http://www.w3.org/2000/svg">
<path fill-rule="evenodd" clip-rule="evenodd" d="M1.33331 0H14.6666V16H1.33331V0ZM2.66665 1.33333V14.6667H13.3333V1.33333H2.66665ZM8.66665 11.9278V13.3333H7.33331V11.9823C6.56385 11.9243 5.77723 11.7347 5.10777 11.494L4.48041 11.2685L4.93147 10.0138L5.55883 10.2393C6.12497 10.4428 6.75031 10.5899 7.33331 10.6443V8.30428C6.90023 8.1506 6.43249 7.95667 6.0465 7.67365C5.4979 7.27139 5.09863 6.67844 5.09863 5.82134C5.09863 5.09075 5.41868 4.53258 5.92994 4.17216C6.34249 3.88133 6.84607 3.74098 7.33331 3.68304V2.66667H8.66665V3.69139C9.4147 3.77697 10.1236 3.98246 10.5711 4.22844L11.1553 4.54957L10.5131 5.71802L9.92884 5.3969C9.67442 5.25706 9.19945 5.11144 8.66665 5.03539V7.34804C9.04515 7.48101 9.44213 7.64061 9.77367 7.85426C10.3135 8.20216 10.7546 8.74115 10.7546 9.56734C10.7546 10.2657 10.5209 10.8449 10.0766 11.2649C9.68285 11.6372 9.17687 11.8344 8.66665 11.9278ZM8.66665 10.5593C8.88673 10.4934 9.04887 10.4017 9.16059 10.2961C9.3039 10.1606 9.4213 9.9496 9.4213 9.56734C9.4213 9.31285 9.32205 9.14943 9.05143 8.97504C8.93898 8.90257 8.81079 8.83772 8.66665 8.77568V10.5593ZM7.33331 6.87363V5.02997C7.05701 5.0781 6.84334 5.15959 6.69818 5.26193C6.53742 5.37526 6.43197 5.52893 6.43197 5.82134C6.43197 6.1889 6.57303 6.40636 6.83493 6.5984C6.97439 6.70065 7.14088 6.78959 7.33331 6.87363Z" fill="#202327"/>
</svg>

<svg xmlns="http://www.w3.org/2000/svg" viewBox="0 0 16 16" class="sageicon"><path fill-rule="evenodd" d="M1.333 0h13.334v16H1.333V0Zm1.334 1.333v13.334h10.666V1.333H2.667Zm6 10.595v1.405H7.333v-1.35a8.692 8.692 0 0 1-2.225-.489l-.628-.226.451-1.254.628.225c.566.204 1.191.35 1.774.405v-2.34c-.433-.153-.9-.347-1.287-.63C5.498 7.27 5.1 6.678 5.1 5.82c0-.73.32-1.288.83-1.649.413-.29.917-.431 1.404-.489V2.667h1.334V3.69c.748.086 1.457.291 1.904.537l.584.322-.642 1.168-.584-.321c-.255-.14-.73-.286-1.262-.362v2.313c.378.133.775.293 1.107.506.54.348.98.887.98 1.713 0 .699-.233 1.278-.677 1.698-.394.372-.9.57-1.41.663Zm0-1.369c.22-.066.382-.157.494-.263.143-.135.26-.346.26-.729 0-.254-.099-.418-.37-.592a2.626 2.626 0 0 0-.384-.2v1.784ZM7.333 6.874V5.03c-.276.048-.49.13-.635.232-.16.113-.266.267-.266.56 0 .367.141.584.403.776.14.103.306.192.498.276Z"/></svg>
